X: 289
T: The Ivy Leaf
R: reel
M: 4/4
L: 1/8
K: Amix
"A"A3e cAec|Aece "G"dBgB|"A"A3e  cAec|"G"AGEF "Em"GABd|
"A"Ae ~e2 ce ~e2|Aece "G"dBgB|"A"A3e  cAec|"G"AGEF "Em"GABd||
"Am"ea~a2 edBd|"G"~g3e "Em"dBGB|"Am"ea~a2 edBA|"G"BGEF "Em"GABd|
"Am"ea~a2 edBd|"G"~g3e "Em"dBGB|"F"~A3B ~=c3d|"C"(3efg "D"fa "Em"gedB||

